X: 26
T:Binkie Brae
M:6/8
L:1/8
C:Jimmy Shand
S:Arr. Barbara McOwen
R:Jig
K:D
A|"D"D2 D FED|"D"AFA "G"Bcd|"D"DDD FED|"D7"A3 "G"B3|
"D"D2 D FED|"D"AFA "G"Bcd|!"Em"ecA "A7"GFE|"D"D3 D2:|
g|"D"f2d dfd|"A7"ecA A2g|"D"fdA FDF|"D7"A3 "G"B2g|!
"D"f2d dfd|"Em"ecA "A7"ABc|"D"dAF "A7"GFE|"D"D3 D2g|
"D"f2d dgd|"A7"ecA A2g|!"D"fdA FDF|"D7"A3 "G"B2g|
"D"fdA "A"ecA|"Bm"dAF "Em"BGE|"D"ABA "A7"ABc |"D"d3 d2||
